img/socialLogo3.svg

<svg width="16" height="16" viewBox="0 0 16 16" fill="none" xmlns="http://www.w3.org/2000/svg">
<g opacity="0.6">
<path d="M15.9593 4.704C15.9218 3.85385 15.7843 3.26939 15.5874 2.76294C15.3842 2.22536 15.0715 1.74406 14.662 1.34396C14.2618 0.937625 13.7772 0.621888 13.2458 0.421898C12.7363 0.224959 12.1548 0.0874807 11.3044 0.0499977C10.4478 0.00934024 10.1758 -6.10352e-05 8.00311 -6.10352e-05C5.83039 -6.10352e-05 5.55844 0.00934024 4.70496 0.0468233C3.85465 0.0843063 3.27007 0.221907 2.76365 0.418723C2.22584 0.621889 1.74445 0.934451 1.34427 1.34396C0.937865 1.74406 0.62219 2.22853 0.422039 2.75989C0.225063 3.26939 0.0875585 3.85068 0.0500683 4.70082C0.00940307 5.55732 0 5.82922 0 8.00153C0 10.1738 0.00940307 10.4457 0.0468932 11.2991C0.0843834 12.1492 0.22201 12.7337 0.418986 13.2401C0.62219 13.7777 0.937865 14.259 1.34427 14.6591C1.74445 15.0654 2.22902 15.3812 2.76047 15.5812C3.27007 15.7781 3.85147 15.9156 4.7019 15.9531C5.55526 15.9907 5.82734 15.9999 8.00006 15.9999C10.1728 15.9999 10.4447 15.9907 11.2982 15.9531C12.1485 15.9156 12.7331 15.7781 13.2395 15.5812C14.315 15.1654 15.1653 14.3153 15.5811 13.2401C15.778 12.7306 15.9156 12.1492 15.9531 11.2991C15.9906 10.4457 16 10.1738 16 8.00153C16 5.82922 15.9968 5.55732 15.9593 4.704ZM14.5182 11.2365C14.4838 12.0179 14.3525 12.4399 14.2431 12.7212C13.9742 13.4182 13.4209 13.9715 12.7237 14.2403C12.4423 14.3497 12.0173 14.481 11.2387 14.5153C10.3947 14.5529 10.1415 14.5622 8.00629 14.5622C5.87106 14.5622 5.61473 14.5529 4.77371 14.5153C3.99215 14.481 3.57011 14.3497 3.28876 14.2403C2.94182 14.1121 2.62602 13.9089 2.3697 13.6433C2.10397 13.3838 1.90076 13.0713 1.77254 12.7244C1.66312 12.4431 1.53185 12.0179 1.49753 11.2397C1.45992 10.3958 1.45064 10.1426 1.45064 8.00775C1.45064 5.87293 1.45992 5.61665 1.49753 4.77591C1.53185 3.99451 1.66312 3.57255 1.77254 3.29124C1.90076 2.94425 2.10397 2.62863 2.37287 2.37224C2.63225 2.10656 2.94487 1.90339 3.29193 1.77532C3.57329 1.66592 3.9985 1.53467 4.77688 1.50024C5.62096 1.46275 5.87423 1.45335 8.00934 1.45335C10.1477 1.45335 10.4009 1.46275 11.2419 1.50024C12.0235 1.53467 12.4455 1.66592 12.7269 1.77532C13.0738 1.90339 13.3896 2.10656 13.6459 2.37224C13.9117 2.63169 14.1149 2.94425 14.2431 3.29124C14.3525 3.57255 14.4838 3.99756 14.5182 4.77591C14.5557 5.61983 14.5651 5.87293 14.5651 8.00775C14.5651 10.1426 14.5557 10.3926 14.5182 11.2365Z" fill="white"/>
<path d="M8.00312 3.89131C5.73356 3.89131 3.89214 5.73225 3.89214 8.0015C3.89214 10.2708 5.73356 12.1117 8.00312 12.1117C10.2728 12.1117 12.1141 10.2708 12.1141 8.0015C12.1141 5.73225 10.2728 3.89131 8.00312 3.89131ZM8.00312 10.6677C6.53074 10.6677 5.33643 9.47372 5.33643 8.0015C5.33643 6.52929 6.53074 5.33532 8.00312 5.33532C9.47561 5.33532 10.6698 6.52929 10.6698 8.0015C10.6698 9.47372 9.47561 10.6677 8.00312 10.6677Z" fill="white"/>
<path d="M13.2365 3.72883C13.2365 4.25872 12.8068 4.68837 12.2766 4.68837C11.7466 4.68837 11.3169 4.25872 11.3169 3.72883C11.3169 3.19881 11.7466 2.76928 12.2766 2.76928C12.8068 2.76928 13.2365 3.19881 13.2365 3.72883Z" fill="white"/>
</g>
</svg>

<svg width="16" height="16" fill="none" xmlns="http://www.w3.org/2000/svg"><g opacity=".6" fill="#fff"><path d="M15.96 4.704c-.038-.85-.176-1.435-.373-1.941a3.905 3.905 0 00-.925-1.419 3.94 3.94 0 00-1.416-.922c-.51-.197-1.091-.335-1.942-.372-.856-.04-1.128-.05-3.3-.05-2.174 0-2.447.01-3.3.047-.85.037-1.435.175-1.941.372a3.905 3.905 0 00-1.42.925A3.94 3.94 0 00.422 2.76C.225 3.27.088 3.85.05 4.7.01 5.558 0 5.83 0 8.003s.01 2.444.047 3.297c.037.85.175 1.435.372 1.941.203.538.519 1.019.925 1.42.4.405.885.721 1.416.921.51.197 1.091.335 1.942.372C5.555 15.991 5.827 16 8 16s2.445-.01 3.298-.047c.85-.037 1.435-.175 1.941-.372a4.093 4.093 0 002.342-2.34c.197-.51.335-1.092.372-1.942.038-.853.047-1.125.047-3.297 0-2.173-.003-2.445-.04-3.298zm-1.442 6.532c-.034.782-.166 1.204-.275 1.485a2.654 2.654 0 01-1.52 1.52c-.28.109-.706.24-1.484.274-.844.038-1.098.047-3.233.047s-2.391-.01-3.232-.047c-.782-.034-1.204-.165-1.485-.275a2.463 2.463 0 01-.92-.597 2.488 2.488 0 01-.596-.919c-.11-.28-.241-.706-.275-1.484-.038-.844-.047-1.097-.047-3.232 0-2.135.009-2.391.047-3.232.034-.781.165-1.203.275-1.485.128-.347.331-.662.6-.919.26-.265.572-.469.919-.597.281-.11.707-.24 1.485-.275.844-.037 1.097-.047 3.232-.047 2.139 0 2.392.01 3.233.047.781.035 1.203.166 1.485.275.347.128.663.332.919.597.266.26.469.572.597.92.11.28.24.706.275 1.484.038.844.047 1.097.047 3.232 0 2.135-.01 2.385-.047 3.229z"/><path d="M8.003 3.891a4.112 4.112 0 00-4.11 4.11 4.112 4.112 0 008.221 0 4.111 4.111 0 00-4.11-4.11zm0 6.777a2.667 2.667 0 110-5.334 2.667 2.667 0 010 5.334zm5.233-6.939a.96.96 0 11-1.919 0 .96.96 0 011.92 0z"/></g></svg>
